Obsidian-SemiLight/actions/22s/media-repeat-album-amarok.svg

<svg viewBox="0 0 22 22" xmlns="http://www.w3.org/2000/svg"><path d="m2 3v16h1 6v-1h-1c0-.552285-.4477153-1-1-1s-1 .447715-1 1h-1v-7-7h1c0 .5522847.4477153 1 1 1s1-.4477153 1-1h4 4c0 .5522847.447715 1 1 1s1-.4477153 1-1h1v7 1h1v-9h-17zm17 8c0-3.8659932-3.134007-7-7-7-3.8659932 0-7 3.1340068-7 7 .00315 2.700827 1.5597788 5.15891 4 6.316406v-1.126953c-1.8543352-1.070599-2.9976084-3.048253-3-5.189453 0-3.3137085 2.6862915-6 6-6 3.313708 0 6 2.6862915 6 6-.002.335258-.032014.669762-.089844 1h1.011719c.049917-.331036.07603-.665227.078125-1zm-16-7h1v14h-1zm9 8-2 1.5 2 1.5v-1h5c.554 0 1 .446 1 1h1c0-1.108008-.891992-2-2-2h-5zm-2 4c0 1.10801.89199 2 2 2h5v1l2-1.5-2-1.5v1h-5c-.554 0-1-.446-1-1z" fill="#4d4d4d"/></svg>

<svg xmlns="http://www.w3.org/2000/svg" viewBox="0 0 22 22">
  <defs id="defs3051">
    <style type="text/css" id="current-color-scheme">
      .ColorScheme-Text {
        color:#4d4d4d;
      }
      </style>
  </defs>
 <path 
    style="fill:currentColor;fill-opacity:1;stroke:none" 
    d="M 2 3 L 2 19 L 3 19 L 9 19 L 9 18 L 8 18 C 8 17.447715 7.5522847 17 7 17 C 6.4477153 17 6 17.447715 6 18 L 5 18 L 5 11 L 5 4 L 6 4 C 6 4.5522847 6.4477153 5 7 5 C 7.5522847 5 8 4.5522847 8 4 L 12 4 L 16 4 C 16 4.5522847 16.447715 5 17 5 C 17.552285 5 18 4.5522847 18 4 L 19 4 L 19 11 L 19 12 L 20 12 L 20 3 L 3 3 L 2 3 z M 19 11 C 19 7.1340068 15.865993 4 12 4 C 8.1340068 4 5 7.1340068 5 11 C 5.00315 13.700827 6.5597788 16.15891 9 17.316406 L 9 16.189453 C 7.1456648 15.118854 6.0023916 13.1412 6 11 C 6 7.6862915 8.6862915 5 12 5 C 15.313708 5 18 7.6862915 18 11 C 17.998 11.335258 17.967986 11.669762 17.910156 12 L 18.921875 12 C 18.971792 11.668964 18.997905 11.334773 19 11 z M 3 4 L 4 4 L 4 18 L 3 18 L 3 4 z M 12 12 L 10 13.5 L 12 15 L 12 14 L 17 14 C 17.554 14 18 14.446 18 15 L 19 15 C 19 13.891992 18.108008 13 17 13 L 12 13 L 12 12 z M 10 16 C 10 17.10801 10.89199 18 12 18 L 17 18 L 17 19 L 19 17.5 L 17 16 L 17 17 L 12 17 C 11.446 17 11 16.554 11 16 L 10 16 z "
    class="ColorScheme-Text"
    />  
</svg>
